X:1
T:Title
%%score { ( 1 3 ) | ( 2 4 ) }
L:1/8
M:4/4
K:C
V:1 treble nm="Grand Piano"
V:3 treble 
V:2 bass 
V:4 bass 
V:1
 z4 z2[Q:1/4=100] [G,EG]>[G,DF] | [G,CE]>[G,CE] [G,CE]>[G,DF] [CEG]>[CEG] [CGc]>[CGB] | %2
[M:3/4] [CFA]>[CFA] [CAc]>[CFA] [CEG]2 |[M:1/4] [G,EG]>[G,DF] | %4
[M:4/4] [G,CE]>[G,CE] [G,CE]>[G,DF] [EG]>[EG] [EG]>[EG] |[M:7/8] [Gc]>[Gc][FB]>[Ec] d3 | %6
[M:1/4] G>G |[M:4/4] [Ec]>[Ec] [Ge]>[Fd] [Fd]>[Ec] [Ec]>[GB] |[M:3/4] [FA]>[FA] [Ac]>[FA] [EG]2 | %9
[M:1/4] [Gc]>[Ad] |[M:4/4] e>e d>c e>e d>c |[M:3/4] d>d c>B [CEc]2 |[M:1/4] E>F | %13
[M:4/4] G4 [Ec]2 z2 | A4 [Ac]2 z2 | [EG]>[EG] [EG]>[EG] [Gc]>[Gc] [FB]>[Ec] | %16
 z4 d2[K:bass] z2[K:treble] | [EG]4 [Ec]2 z2 |[M:7/8] [FA]- [FA]3 z z2 |[M:1/4] [CGc]>[Ad] | %20
[M:4/4] e>e d>c e>e d>c |[M:7/4] d>dc>B [Ec]2 z2 z2 z4 |] %22
V:2
 z4 z2 C,>C, | C,>C, C,>C, C,>C, E,>E, |[M:3/4] F,>F, F,>F, C,2 |[M:1/4] C,>C, | %4
[M:4/4] C,>C, C,>C, [C,C]>[C,C] [C,C]>[C,C] | %5
[M:7/8] [E,G,]>[E,G,][D,G,]>[C,G,][K:treble] [G,B,F]3 |[M:1/4] [G,B,F]>[G,B,F] | %7
[M:4/4][K:bass] [C,G,]>[C,G,] [C,G,]>[C,G,] [C,G,]>[C,G,] [C,G,]>[E,C] | %8
[M:3/4] [F,C]>[F,C] [F,C]>[F,C] [C,C]2 |[M:1/4] [E,C]>[F,C] | %10
[M:4/4][K:treble] [G,CG]>[G,CG] [G,CF]>[G,CE] [G,CG]>[G,CG] [G,CF]>[G,CE] | %11
[M:3/4] [G,B,F]>[G,B,F] [G,DF]>[G,DF][K:bass] C,2 |[M:1/4] C>D |[M:4/4] E4 z4[K:treble] | %14
 F4[K:bass] z4 | [C,C]>[C,C] [C,C]>[C,C] [E,G,]>[E,G,] [D,G,]>[C,G,] | %16
 [G,B,G]>[G,B,G] [G,B,G]>[G,CG] [G,B,G]2[K:bass] [E,G,C]>[D,G,D] | [C,C]>C, C,>C, [C,G,]>C, C,>C, | %18
[M:7/8] F,>F,F,>F, F,3 |[M:1/4] E,>[F,C] | %20
[M:4/4][K:treble] [G,CG]>[G,CG] [G,CF]>[G,CE] [G,CG]>[G,CG] [G,CF]>[G,CE] | %21
[M:7/4] [G,B,F]>[G,B,F][G,DF]>[G,DF][K:bass] [C,C]2 z2 z2 z4 |] %22
V:3
 x8 | x8 |[M:3/4] x6 |[M:1/4] x2 |[M:4/4] x8 |[M:7/8] x7 |[M:1/4] x2 |[M:4/4] x8 |[M:3/4] x6 | %9
[M:1/4] x2 |[M:4/4] x8 |[M:3/4] x6 |[M:1/4] x2 |[M:4/4] z2 C>C CC G>G | z2 C>C C>C [CGB]>[CFA] | %15
 x8 | d>d d>e z z/[K:bass] F,/ E>[K:treble]F | z z/ C/ C>C z z/ G,/ [CEG]>[CEG] | %18
[M:7/8] C>CC>C [CAc]3 |[M:1/4] x2 |[M:4/4] x8 |[M:7/4] x14 |] %22
V:4
 x8 | x8 |[M:3/4] x6 |[M:1/4] x2 |[M:4/4] x8 |[M:7/8] x4[K:treble] x3 |[M:1/4] x2 | %7
[M:4/4][K:bass] x8 |[M:3/4] x6 |[M:1/4] x2 |[M:4/4][K:treble] x8 |[M:3/4] x4[K:bass] x2 | %12
[M:1/4] x2 |[M:4/4] z2 C,>C, C,C,[K:treble] E>E | z2[K:bass] F,>F, F,>F, F,>F, | x8 | %16
 x6[K:bass] x2 | x8 |[M:7/8] x7 |[M:1/4] x2 |[M:4/4][K:treble] x8 |[M:7/4] x4[K:bass] x10 |] %22

